X:62
T: Kornschneiden
N: Q0136
O: Mitteleuropa, Deutschland
N: Taktart entsprechend den Taktstrichen als 3/4 bezeichnet.
R: Ballade, Beischlaf, Schwangerschaft, Moral
M: 3/4
L: 1/4
K: F
F | F2C | F2G | A2A | G2
F | F2C | F2G | A3 | G2
F | G2A | B2c | A2A | G2
G | F2F | CD_E | D3 | C2

@@@ Tune index: 1560
